WatchTrans iOS/Assets.xcassets/CustomSymbols/EscalatorDownSymbol.imageset/escalator_down.svg

<?xml version="1.0" encoding="UTF-8" standalone="no"?>
<svg
   width="512"
   height="399"
   version="1.0"
   id="svg5"
   sodipodi:docname="escalator_down.svg"
   xmlns:inkscape="http://www.inkscape.org/namespaces/inkscape"
   xmlns:sodipodi="http://sodipodi.sourceforge.net/DTD/sodipodi-0.dtd"
   xmlns="http://www.w3.org/2000/svg"
   xmlns:svg="http://www.w3.org/2000/svg">
  <sodipodi:namedview
     id="namedview5"
     pagecolor="#ffffff"
     bordercolor="#000000"
     borderopacity="0.25"
     inkscape:showpageshadow="2"
     inkscape:pageopacity="0.0"
     inkscape:pagecheckerboard="0"
     inkscape:deskcolor="#d1d1d1" />
  <defs
     id="defs1">
    <mask
       id="corte">
      <rect
         width="100%"
         height="100%"
         fill="#ffffff"
         id="rect1"
         x="0"
         y="0" />
      <g
         transform="translate(34,71)"
         style="fill:#000000;fill-rule:evenodd;stroke:none"
         id="g1">
        <path
           d="m 344,0 c 0,0 71,0 71,0 18,0 29,20 29,31 0,12 -8,33 -29,33 0,0 -43,0 -43,0 -18,0 -26,3 -36,13 0,0 -204,204 -204,204 -8,8 -19,11 -32,11 0,0 -67,0 -67,0 -17,0 -33,-15 -33,-34 0,-19 15,-30 30,-30 0,0 46,0 46,0 13,0 22,-3 30,-11 0,0 207,-207 207,-207 9,-9 17,-10 31,-10 z"
           id="path1" />
      </g>
    </mask>
  </defs>
  <g
     mask="url(#corte)"
     id="g5"
     transform="translate(-1,-1)">
    <g
       transform="translate(184,1)"
       style="fill:#000000;fill-rule:evenodd;stroke:none"
       id="g2">
      <path
         d="M 33,68 C 52,68 67,53 67,34 67,15 52,0 33,0 15,0 0,15 0,34 0,53 15,68 33,68 Z"
         id="path2" />
    </g>
    <g
       transform="translate(1,38)"
       style="fill:#000000;fill-rule:evenodd;stroke:none"
       id="g3">
      <path
         d="m 250,92 c 0,0 0,-22 0,-22 0,-45 -67,-45 -67,0 0,0 0,87 0,87 0,0 0,0 0,0 0,0 -63,64 -63,64 -6,6 -7,6 -19,6 0,0 -39,0 -39,0 -39,0 -62,35 -62,65 0,30 23,67 66,67 0,0 53,0 69,0 16,0 36,-6 52,-21 0,0 202,-202 202,-202 5,-4 7,-5 15,-5 0,0 27,0 49,0 25,0 59,-27 59,-66 0,-39 -35,-65 -60,-65 0,0 -79,0 -79,0 -17,0 -38,6 -50,19 z"
         id="path3" />
    </g>
    <g
       transform="translate(289,264)"
       style="fill:#000000;fill-rule:evenodd;stroke:none"
       id="g4">
      <path
         d="m 17,136 c 0,0 71,0 71,0 20,0 20,-30 0,-30 0,0 -36,0 -36,0 0,0 69,-69 69,-69 C 136,22 114,0 98,16 98,16 30,84 30,84 30,84 30,48 30,48 30,29 0,28 0,48 c 0,0 0,71 0,71 0,10 7,17 17,17 z"
         id="path4" />
    </g>
  </g>
</svg>

<?xml version="1.0" encoding="UTF-8" standalone="no"?>
<svg
   xmlns="http://www.w3.org/2000/svg"
   width="513.5"
   height="400.5"
   version="1.0">
  <defs>
    <mask id="corte">
      <rect width="100%" height="100%" fill="white"/>
      <g
         transform="translate(34,71)"
         style="fill:#000000;fill-rule:evenodd;stroke:none">
        <path
           d="M 344,0 C 344,0 415,0 415,0 C 433,0 444,20 444,31 C 444,43 436,64 415,64 C 415,64 372,64 372,64 C 354,64 346,67 336,77 C 336,77 132,281 132,281 C 124,289 113,292 100,292 C 100,292 33,292 33,292 C 16,292 0,277 0,258 C 0,239 15,228 30,228 C 30,228 76,228 76,228 C 89,228 98,225 106,217 C 106,217 313,10 313,10 C 322,1 330,0 344,0 z " />
      </g>
    </mask>
  </defs>
  <g mask="url(#corte)">
    <g
       transform="translate(184,1)"
       style="fill:#000000;fill-rule:evenodd;stroke:none">
      <path
         d="M 33,68 C 52,68 67,53 67,34 C 67,15 52,0 33,0 C 15,0 0,15 0,34 C 0,53 15,68 33,68 z " />
    </g>
    <g
       transform="translate(1,38)"
       style="fill:#000000;fill-rule:evenodd;stroke:none">
      <path
         d="M 250,92 C 250,92 250,70 250,70 C 250,25 183,25 183,70 C 183,70 183,157 183,157 C 183,157 183,157 183,157 C 183,157 120,221 120,221 C 114,227 113,227 101,227 C 101,227 62,227 62,227 C 23,227 0,262 0,292 C 0,322 23,359 66,359 C 66,359 119,359 135,359 C 151,359 171,353 187,338 C 187,338 389,136 389,136 C 394,132 396,131 404,131 C 404,131 431,131 453,131 C 478,131 512,104 512,65 C 512,26 477,0 452,0 C 452,0 373,0 373,0 C 356,0 335,6 323,19 C 323,19 250,92 250,92 z " />
    </g>
    <g
       transform="translate(289,264)"
       style="fill:#000000;fill-rule:evenodd;stroke:none">
      <path
         d="M 17,136 C 17,136 88,136 88,136 C 108,136 108,106 88,106 C 88,106 52,106 52,106 C 52,106 121,37 121,37 C 136,22 114,0 98,16 C 98,16 30,84 30,84 C 30,84 30,48 30,48 C 30,29 0,28 0,48 C 0,48 0,119 0,119 C 0,129 7,136 17,136 z " />
    </g>
  </g>
</svg>
